X: 3327
T: Belle Qui Tiens Ma Vie
R: reel
M: 4/4
K: Gminor
B,4 B,2 A,2|B,2 C2 D4|D2 B,2 G,2 D2|C2 C2 D4:|
|:D4 C2 D2|B,2 C2 A,4|B,4 G,2 B,2|A,2 A,2 G,4:|
B4 B2 A2|B2 c2 d4|d2 B2 G2 d2|c2 c2 d4:|
|:d4 c2 d2|B2 c2 A4|B4 G2 B2|A2 A2 G4:|
D4 D2 D2|D2 F2 F4|F2 F2 E2 F2|G2 F2 F4:|
|:F4 F2 F2|D2 _E2 D4|F4 C2 D2|D2 D2 =B,4:|
G,4 G,2 D,2|G,2 F,2 B,,4|B,,2 B,,2 C,2 D,2|_E,2 F,2 B,,4:|
|:B,4 F,2 D,2|G,2 C,2 D,4|B,,4 C,2 G,,2|D,2 D,2 G,,4:|

